X: 757
T: Move Up to Me   #2
R: jig
%S: s:2 b:12(6+6)
B: O'Neill's 1850 #757
Z: Transcribed by Bob Safranek, rjs@gsp.org
Z: Transcribed by Michael Hogan
M: 6/8
L: 1/8
K: G
"^A"[|] (d/c/) |: B2d dBd | ece dBG |[1,3 Bcd de=f | AFA ABc :|[2,4 BdB cAF | GAG G2 :|
"^B"|: d | geg fdf | ece dBG |[1,3 geg fdf | ece d2 :|[2,4 BdB cAF | GAG G2 :|
